X: 79
I: linebreak $
T: Parson's Farewell
T: for two couples facing
T: Bouree XXXII à 4
C: 
P: AABB x 3
N: 
K: D dorian
M: 2/2
L: 1/4
P: A
f |: "Dm"d2 de/f/ | "C"gc cf/e/ | "Dm"d/c/d/e/ "Bb"d/e/f/g/ |  [1 "A"aA A"Dm"f :|]  [2 "A"aA A"F"a :: 
P: B
"F"f3a | 
f3a | f/g/a f/g/a | "C"ge eg | e/f/g e/f/g | "Dm"fd df/e/ |  [1 "Gm"d"A"^c "Gm"d/e/f/d/ | 
"A"eA A"F"a :|]  [2 "Gm"d"Dm"f "A"e/d/^c/e/ | "D"dd d2 |] 

